!!!Rep U0221
!!!Isim(Name): Gönüş Yükseklenmiş Alçaklıyamam
!!!Yore(Region): Elazığ
!!!Makam: Kürdi
!!!Arizalar(Accidentals):
!!!Usul: 9/8
**kern	**Dcent
*staff1	*.
=1-	=1-
*clefG2	*.
*k[]	*.
*M9/8	*.
8dd	0
8dd	0
16cc	0
16dd	0
16b	0
16cc	0
8dd	0
16dd	0
16cc	0
16dd	0
16b	0
8cc	0
8r	.
=2	=2
8dd	0
8dd	0
16cc	0
16dd	0
16b	0
16cc	0
8dd	0
16dd	0
16cc	0
16dd	0
16b	0
8cc	0
8r	.
=3	=3
!!linebreak:default
8dd	0
8dd	0
16cc	0
16dd	0
16.cc	0
32b	0
16cc	0
16b	0
32cc	0
32dd	0
16b	0
16b	0
16a	0
8.a	0
16g	0
=4	=4
16b	0
16cc	0
16dd	0
16cc	0
8dd	0
16.cc	0
32b	0
16cc	0
16b	0
32cc	0
32dd	0
16b	0
16b	0
16a	0
4a	0
=5	=5
!!linebreak:default
16a	0
16dd	0
8cc	0
8b	0
16.cc	0
32b	0
8a	0
8b	0
8g	0
16a	0
16b	0
16cc	0
16dd	0
=6	=6
16b	0
16dd	0
8cc	0
8b	0
16.cc	0
32b	0
8a	0
8b	0
8g	0
4a	0
=7	=7
!!linebreak:default
8a	0
8a	0
8dd	0
16a	0
16b-	0
16a	0
16g	0
16f#	0
16g	0
16a	0
16g	0
4a	0
=8	=8
8a	0
8a	0
8dd	0
16a	0
16b-	0
16a	0
16g	0
16f#	0
16g	0
16a	0
16g	0
4a	0
==:!	==:!
*MX/X	*.
16bQ	0
16ccQ	0
16ddQ	0
8dQ	0
8dQ;	0
*-	*-
!! Uzun Hava Humdrum Bilgi Bankasi (Uzun Hava Humdrum Database)
!! 
!! Sertan Senturk, Parag Chordia & Erdal Tugcular
!! Georgia Tech Center for Music Technology, 2011
